X: 101
T:Swells of Coolrahan (#297), The
M:4/4
L:1/8
S:Pat. Dunne manuscript
R:Reel
K:G
DEGB A2 GA|cGAG cG E2|DEGB A2 GA|cded cA A2:||
degb bgaf|gfga gedB|dega bgaf|eaab a2 ge|
dega bgaf|gfga gedc|BAGB AGED|EGFA G2 z2||
%
% It may be remarked that Mr. Dunne was a farmer of the townland
% of Kilbraugh not far from Thurles, Tipperary. From his wonderful
% repertory of dance tunes, generously contributed some years ago,
% many have been selected.

